X: 16849
T: Harvest Moon Scottische
R: hornpipe
M: 4/4
K: Dmajor
|:(3ABc|d2 A2 F2 D2|C>D E>F G2 G>A|B2 G2 E2 C2|D>E F>B A2 (3ABc|
d2 A2 F2 D2|C>D E>F G2 G>A|B>G E>D C>D E>G|F2 D2 D2:|
|:F>G|(3ABA F>A d2 c2|(3BcB G>B e2 d2|(3cdc B>A f2 e2|(3dfe (3dcB A2 F>G|
(3ABA F>A d2 c2|(3BcB G>B e2 d2|(3cdc B>A f>e B>c|d2 f2 d2:|

